X: 1
T: Sarah Armstrong's reel
M: C
%D:1943
L: 1/8
B: Bayard--Hill Country Tunes, No. 33 ("Old Reel")
S: Mrs. Sarah Armstrong, near Derry, Pa., Nov. 1943
S: https://tunearch.org/wiki/Sarah_Armstrong 2021-9-6
S Shana Aisenberg: Fiddle Hell Online jam 2020-7-22
K: D
A,2- |\
A,2D2 B,2D2 | A,2DE FED2 | E2A2 F2A2 | E2AB cBA2 |
A,2[G,2D2] B,2[G,2D2] | A,2DE FED2 | E2A2 A3B | AGE2 D2 :|
|:\
d2dA dAF[DA] | E2E2 EFGA | B2Bc BAE2 | D2[D2d2] [Dd]ABc |
d2dA dAF[DA] | E2E2 EFGA | B2Bc BAE2 | D2[D2d2] [D2d2] :|
